X:1
T:The Foxhunter's
R:reel
M:4/4
L:1/8
K:A
|:~e2cA eAcA|eAcA BAFA|~e2cA eAcA|BdcA BAFA:|
|:~E2Ec cBAF|EAcA BAFA|~E2Ec cBAc|BdcA BAFA:|
|:afec ABce|aece fbbg|afec ABcA|Bcde fB~B2:|
|:eaag ~a2af|eaae faec|eaag ~a2ae|faec BABc:|
|:~A2cA eAcB|AccA BABc|~A2cA eAce|faec BABc:|